X: 80
T:Gan Ainm
M:9/8
L:1/8
S:Ciaran Kelly, Moneymore, Derry (Accordian)
R:Slip Jig
D:Session tape - Belfast
Z:Bernie Stocks
K:D
d2f afd dcd | Bee efd cBA | d2f afd dcd |1Bcd ecA d3 :|2Bcd ecA d2f |: \
e2A A2B cBA | d2e f2g agf | e2A A2B cBA | Bcd ecA d2f :|
<end>
<start>
